svg/outline/amex.svg

<?xml version="1.0" encoding="UTF-8" standalone="no"?>
<svg width="780px" height="501px" viewBox="0 0 780 501" version="1.1" xmlns="http://www.w3.org/2000/svg" xmlns:xlink="http://www.w3.org/1999/xlink" xmlns:sketch="http://www.bohemiancoding.com/sketch/ns">
    <!-- Generator: Sketch 3.3.1 (12005) - http://www.bohemiancoding.com/sketch -->
    <title>amex-outline</title>
    <desc>Created with Sketch.</desc>
    <defs></defs>
    <g id="Page-1" stroke="none" stroke-width="1" fill="none" fill-rule="evenodd" sketch:type="MSPage">
        <rect id="Rectangle-1" stroke="#393939" stroke-width="30" sketch:type="MSShapeGroup" x="15" y="15" width="750" height="471" rx="40"></rect>
        <path d="M29.0019512,236.719459 L63.6812701,236.719459 L71.5007649,217.937789 L89.0069055,217.937789 L96.8059104,236.719459 L165.040159,236.719459 L165.040159,222.360306 L171.130811,236.78067 L206.552892,236.78067 L212.643543,222.146067 L212.643543,236.719459 L382.218753,236.719459 L382.139354,205.889363 L385.420315,205.889363 C387.717756,205.968428 388.388803,206.180117 388.388803,209.957365 L388.388803,236.719459 L476.093671,236.719459 L476.093671,229.542433 C483.167843,233.31713 494.170971,236.719459 508.649714,236.719459 L545.547075,236.719459 L553.443408,217.937789 L570.949548,217.937789 L578.671716,236.719459 L649.774564,236.719459 L649.774564,218.878913 L660.542057,236.719459 L717.519614,236.719459 L717.519614,118.785672 L661.131145,118.785672 L661.131145,132.713795 L653.234812,118.785672 L595.373624,118.785672 L595.373624,132.713795 L588.122726,118.785672 L509.966197,118.785672 C496.883334,118.785672 485.383323,120.604158 476.093671,125.671944 L476.093671,118.785672 L422.158879,118.785672 L422.158879,125.671944 C416.247515,120.44858 408.192385,118.785672 399.235695,118.785672 L202.191084,118.785672 L188.969914,149.245949 L175.39273,118.785672 L113.328531,118.785672 L113.328531,132.713795 L106.510485,118.785672 L53.5797019,118.785672 L28.99939,174.857781 L28.99939,236.719459 L29.0019512,236.719459 Z M247.909388,219.708418 L227.101797,219.708418 L227.02496,153.482883 L197.593641,219.708418 L179.772467,219.708418 L150.264311,153.424223 L150.264311,219.708418 L108.982091,219.708418 L101.183086,200.847683 L58.9224684,200.847683 L51.0440648,219.708418 L28.99939,219.708418 L65.3460823,135.150097 L95.5022344,135.150097 L130.022756,215.209386 L130.022756,135.150097 L163.149957,135.150097 L189.712676,192.512744 L214.113701,135.150097 L247.906827,135.150097 L247.906827,219.708418 L247.909388,219.708418 Z M94.246341,183.298872 L80.3541235,149.589295 L66.5413047,183.298872 L94.246341,183.298872 Z M330.718356,219.708418 L262.914397,219.708418 L262.914397,135.150097 L330.718356,135.150097 L330.718356,152.75855 L283.2123,152.75855 L283.2123,168.000165 L329.5786,168.000165 L329.5786,185.333167 L283.2123,185.333167 L283.2123,202.219837 L330.718356,202.219837 L330.718356,219.708418 L330.718356,219.708418 Z M426.268776,157.923254 C426.268776,171.405044 417.232687,178.370381 411.966758,180.461767 C416.407965,182.145078 420.201175,185.118928 422.006856,187.582683 C424.872895,191.78841 425.367216,195.545254 425.367216,203.097199 L425.367216,219.708418 L404.895148,219.708418 L404.818311,209.044898 C404.818311,203.956708 405.307509,196.639406 401.614188,192.571404 C398.648261,189.597555 394.127655,188.952286 386.82041,188.952286 L365.03186,188.952286 L365.03186,219.708418 L344.736519,219.708418 L344.736519,135.150097 L391.420414,135.150097 C401.793475,135.150097 409.436244,135.422997 415.998165,139.200245 C422.419218,142.977493 426.268776,148.491611 426.268776,157.923254 Z M400.611257,170.479445 C397.822056,172.165307 394.523167,172.221417 390.571159,172.221417 L365.914009,172.221417 L365.914009,153.439747 L390.906682,153.439747 C394.443768,153.439747 398.134529,153.597877 400.531858,154.964929 C403.164823,156.196807 404.793777,158.818691 404.793777,162.44036 C404.793777,166.135993 403.244221,169.109842 400.611257,170.479445 Z M458.820263,219.708418 L438.109999,219.708418 L438.109999,135.150097 L458.820263,135.150097 L458.820263,219.708418 Z M699.236548,219.708418 L670.473715,219.708418 L632.001186,156.242493 L632.001186,219.708418 L590.66518,219.708418 L582.766286,200.847683 L540.602996,200.847683 L532.939738,219.708418 L509.189271,219.708418 C499.323337,219.708418 486.832123,217.535416 479.757952,210.35584 C472.624872,203.176264 468.913621,193.451317 468.913621,178.074526 C468.913621,165.53386 471.131664,154.069492 479.85528,145.010218 C486.417201,138.261672 496.692934,135.150097 510.679918,135.150097 L530.329824,135.150097 L530.329824,153.268644 L511.092279,153.268644 C503.685145,153.268644 499.502625,154.365346 495.473779,158.277769 C492.013531,161.838227 489.639253,168.56892 489.639253,177.431808 C489.639253,186.491081 491.447495,193.022838 495.220216,197.289776 C498.34494,200.635994 504.02323,201.651082 509.365997,201.651082 L518.481484,201.651082 L547.08808,135.152647 L577.500357,135.152647 L611.864642,215.132872 L611.864642,135.152647 L642.768679,135.152647 L678.446885,194.043026 L678.446885,135.152647 L699.236548,135.152647 L699.236548,219.708418 Z M575.862851,183.298872 L561.816959,149.589295 L547.847904,183.298872 L575.862851,183.298872 Z" id="Path" fill="#393939" sketch:type="MSShapeGroup"></path>
        <path d="M750.958681,354.725349 C746.028275,361.904926 736.421028,365.544448 723.415003,365.544448 L684.21764,365.544448 L684.21764,347.408048 L723.256206,347.408048 C727.128815,347.408048 729.838617,346.900504 731.470133,345.314111 C732.883943,344.005719 733.870024,342.105618 733.870024,339.797442 C733.870024,337.333687 732.883943,335.377475 731.390734,334.204259 C729.918016,332.91372 727.77425,332.327112 724.239725,332.327112 C705.181468,331.681843 681.405388,332.91372 681.405388,306.149076 C681.405388,293.881309 689.227444,280.968274 710.526795,280.968274 L750.956119,280.968274 L750.956119,264.140265 L713.392834,264.140265 C702.056743,264.140265 693.822326,266.843765 687.990361,271.046941 L687.990361,264.140265 L632.429174,264.140265 C623.5442,264.140265 613.114792,266.33367 608.181825,271.046941 L608.181825,264.140265 L508.96414,264.140265 L508.96414,271.046941 C501.067808,265.374693 487.744188,264.140265 481.594628,264.140265 L416.149579,264.140265 L416.149579,271.046941 C409.902692,265.022728 396.010474,264.140265 387.542983,264.140265 L314.29893,264.140265 L297.538113,282.202702 L281.840214,264.140265 L172.428757,264.140265 L172.428757,382.155667 L279.78097,382.155667 L297.051475,363.807577 L313.320533,382.155667 L379.492976,382.214328 L379.492976,354.452449 L385.99855,354.452449 C394.778513,354.587624 405.133645,354.235659 414.269622,350.302832 L414.269622,382.153116 L468.84985,382.153116 L468.84985,351.394434 L471.482814,351.394434 C474.843174,351.394434 475.173575,351.53216 475.173575,354.875827 L475.173575,382.150566 L640.978625,382.150566 C651.505361,382.150566 662.508489,379.46747 668.601702,374.598621 L668.601702,382.150566 L721.1944,382.150566 C732.138619,382.150566 742.826713,380.622834 750.958681,376.710411 L750.958681,354.725349 Z M422.204141,309.3312 C422.204141,332.826141 404.600673,337.677137 386.858897,337.677137 L361.533262,337.677137 L361.533262,366.046027 L322.082335,366.046027 L297.089662,338.046955 L271.11603,366.046027 L190.718407,366.046027 L190.718407,281.467303 L272.353114,281.467303 L297.325297,309.190924 L323.142692,281.467303 L387.998653,281.467303 C404.106352,281.467303 422.204141,285.907673 422.204141,309.3312 Z M260.836671,348.255628 L210.933284,348.255628 L210.933284,331.427619 L255.493904,331.427619 L255.493904,314.171131 L210.933284,314.171131 L210.933284,298.79434 L261.82019,298.79434 L284.021101,323.442094 L260.836671,348.255628 Z M341.245167,357.940198 L310.082444,323.488434 L341.245167,290.130822 L341.245167,357.940198 Z M387.3307,320.333069 L361.100943,320.333069 L361.100943,298.79434 L387.566335,298.79434 C394.89407,298.79434 399.980711,301.76819 399.980711,309.164556 C399.980711,316.479307 395.129705,320.333069 387.3307,320.333069 Z M524.745187,281.467303 L592.487676,281.467303 L592.487676,298.958434 L544.958568,298.958434 L544.958568,314.335225 L591.32743,314.335225 L591.32743,331.591713 L544.958568,331.591713 L544.958568,348.419721 L592.487676,348.496235 L592.487676,366.046027 L524.745187,366.046027 L524.745187,281.467303 L524.745187,281.467303 Z M498.701835,326.740716 C503.219879,328.401073 506.913201,331.377473 508.644605,333.841228 C511.510644,337.970441 511.925566,341.824203 512.007526,349.27923 L512.007526,366.046027 L491.630225,366.046027 L491.630225,355.464123 C491.630225,350.375933 492.121985,342.841841 488.349264,338.909014 C485.383337,335.879055 480.862732,335.154721 473.458159,335.154721 L451.766937,335.154721 L451.766937,366.046027 L431.371707,366.046027 L431.371707,281.467303 L478.232328,281.467303 C488.508062,281.467303 495.992033,281.918736 502.653843,285.45879 C509.059528,289.312552 513.088373,294.592027 513.088373,304.24046 C513.085812,317.740104 504.044601,324.628926 498.701835,326.740716 Z M487.228516,316.048278 C484.513591,317.652524 481.155793,317.79025 477.206346,317.79025 L452.549197,317.79025 L452.549197,298.79434 L477.54187,298.79434 C481.155793,298.79434 484.772278,298.870855 487.228516,300.322073 C489.858919,301.691676 491.431526,304.31101 491.431526,307.930128 C491.431526,311.549247 489.858919,314.464435 487.228516,316.048278 Z M670.459345,321.435736 C674.411353,325.508839 676.529507,330.650589 676.529507,339.355347 C676.529507,357.550408 665.114017,366.043477 644.644511,366.043477 L605.111624,366.043477 L605.111624,347.907077 L644.485714,347.907077 C648.335272,347.907077 651.065564,347.399533 652.776478,345.81314 C654.172359,344.504748 655.173808,342.604647 655.173808,340.296471 C655.173808,337.832715 654.090399,335.876504 652.69708,334.703287 C651.144962,333.412749 649.003758,332.826141 645.469233,332.826141 C626.487813,332.180871 602.716856,333.412749 602.716856,306.648105 C602.716856,294.380338 610.456952,281.467303 631.735813,281.467303 L672.426385,281.467303 L672.426385,299.468528 L635.1935,299.468528 C631.50274,299.468528 629.102849,299.606254 627.061533,300.996261 C624.838368,302.365864 624.013646,304.398589 624.013646,307.081685 C624.013646,310.272324 625.901287,312.442775 628.454853,313.381348 C630.596057,314.123536 632.896059,314.340326 636.353746,314.340326 L647.280037,314.63363 C658.298532,314.901429 665.861902,316.79898 670.459345,321.435736 Z M751.00061,298.79434 L714.008483,298.79434 C710.315161,298.79434 707.861484,298.932066 705.794556,300.322073 C703.653351,301.691676 702.828629,303.724401 702.828629,306.407497 C702.828629,309.598136 704.636871,311.768587 707.267274,312.707161 C709.408479,313.449348 711.708481,313.666138 715.08933,313.666138 L726.089897,313.959442 C737.190352,314.232342 744.600047,316.132443 749.118092,320.766649 C749.940253,321.411919 750.434574,322.136252 751.00061,322.860586 L751.00061,298.79434 Z" id="Path" fill="#393939" sketch:type="MSShapeGroup"></path>
    </g>
</svg>

<svg width="780" height="501" viewBox="0 0 780 501" xmlns="http://www.w3.org/2000/svg"><title>amex-outline</title><g fill="none" fill-rule="evenodd"><rect stroke="#393939" stroke-width="30" x="15" y="15" width="750" height="471" rx="40"/><path d="M29.002 236.72h34.68l7.819-18.782h17.506l7.799 18.781h68.234V222.36l6.09 14.42h35.423l6.09-14.634v14.573H382.22l-.08-30.83h3.281c2.298.08 2.969.291 2.969 4.068v26.762h87.705v-7.177c7.074 3.775 18.077 7.177 32.556 7.177h36.897l7.896-18.781h17.507l7.722 18.781h71.103v-17.84l10.767 17.84h56.978V118.786H661.13v13.928l-7.896-13.928h-57.861v13.928l-7.251-13.928h-78.157c-13.083 0-24.583 1.818-33.872 6.886v-6.886h-53.935v6.886c-5.911-5.223-13.967-6.886-22.923-6.886H202.19l-13.221 30.46-13.577-30.46h-62.064v13.928l-6.819-13.928H53.58L29 174.858v61.861h.002zm218.907-17.012h-20.807l-.077-66.225-29.431 66.225h-17.822l-29.508-66.284v66.284h-41.282l-7.799-18.86h-42.26l-7.879 18.86H29l36.347-84.558h30.156l34.52 80.06v-80.06h33.128l26.563 57.363 24.4-57.363h33.794v84.558h.002zm-153.663-36.41L80.354 149.59 66.541 183.3h27.705zm236.472 36.41h-67.804V135.15h67.804v17.609h-47.506V168h46.367v17.333h-46.367v16.887h47.506v17.488zm95.55-61.785c0 13.482-9.035 20.447-14.301 22.539 4.441 1.683 8.234 4.657 10.04 7.12 2.866 4.206 3.36 7.963 3.36 15.515v16.611h-20.472l-.077-10.663c0-5.088.49-12.406-3.204-16.474-2.966-2.973-7.486-3.619-14.794-3.619h-21.788v30.756h-20.295V135.15h46.683c10.373 0 18.016.273 24.578 4.05 6.421 3.777 10.27 9.292 10.27 18.723zm-25.657 12.556c-2.789 1.686-6.088 1.742-10.04 1.742h-24.657V153.44h24.993c3.537 0 7.228.158 9.625 1.525 2.633 1.232 4.262 3.854 4.262 7.475 0 3.696-1.55 6.67-4.183 8.04zm58.21 49.23H438.11V135.15h20.71v84.558zm240.416 0h-28.763L632 156.241v63.466h-41.336l-7.899-18.86h-42.163l-7.663 18.86h-23.75c-9.867 0-22.358-2.173-29.432-9.352-7.133-7.18-10.844-16.905-10.844-32.281 0-12.541 2.218-24.006 10.941-33.065 6.562-6.748 16.838-9.86 30.825-9.86h19.65v18.119h-19.238c-7.407 0-11.59 1.096-15.618 5.009-3.46 3.56-5.835 10.29-5.835 19.154 0 9.06 1.808 15.59 5.581 19.858 3.125 3.346 8.803 4.361 14.146 4.361h9.115l28.607-66.498H577.5l34.365 79.98v-79.98h30.904l35.678 58.89v-58.89h20.79v84.555zm-123.374-36.41l-14.046-33.71-13.97 33.71h28.016zM750.959 354.725c-4.93 7.18-14.538 10.82-27.544 10.82h-39.197v-18.137h39.038c3.873 0 6.583-.507 8.214-2.094a7.422 7.422 0 0 0 2.4-5.517c0-2.463-.986-4.42-2.48-5.593-1.472-1.29-3.616-1.877-7.15-1.877-19.059-.645-42.835.587-42.835-26.178 0-12.268 7.822-25.18 29.122-25.18h40.43V264.14h-37.564c-11.336 0-19.57 2.704-25.403 6.907v-6.907h-55.56c-8.886 0-19.315 2.194-24.248 6.907v-6.907h-99.218v6.907c-7.896-5.672-21.22-6.907-27.37-6.907H416.15v6.907c-6.247-6.024-20.14-6.907-28.607-6.907h-73.244l-16.76 18.063-15.699-18.063H172.43v118.016H279.78l17.27-18.348 16.27 18.348 66.172.058v-27.762h6.506c8.78.136 19.135-.216 28.27-4.15v31.851h54.58v-30.759h2.634c3.36 0 3.69.138 3.69 3.482v27.275H640.98c10.526 0 21.53-2.684 27.623-7.552v7.552h52.592c10.945 0 21.633-1.528 29.765-5.44v-21.986zm-328.755-45.394c0 23.495-17.603 28.346-35.345 28.346h-25.326v28.369h-39.45l-24.993-27.999-25.974 27.999h-80.398v-84.579h81.635l24.972 27.724 25.818-27.724h64.856c16.107 0 34.205 4.44 34.205 27.864zm-161.367 38.925h-49.904v-16.828h44.56V314.17h-44.56v-15.377h50.887l22.201 24.648-23.184 24.814zm80.408 9.684l-31.163-34.452 31.163-33.357v67.81zm46.086-37.607H361.1v-21.539h26.465c7.328 0 12.415 2.974 12.415 10.37 0 7.315-4.851 11.17-12.65 11.17zm137.414-38.866h67.743v17.491h-47.53v15.377h46.37v17.257h-46.37v16.828l47.53.076v17.55h-67.743v-84.579zm-26.043 45.274c4.518 1.66 8.211 4.636 9.943 7.1 2.866 4.13 3.28 7.983 3.363 15.438v16.767H491.63v-10.582c0-5.088.492-12.622-3.28-16.555-2.967-3.03-7.487-3.754-14.892-3.754h-21.691v30.891h-20.395v-84.579h46.86c10.276 0 17.76.452 24.422 3.992 6.406 3.854 10.434 9.133 10.434 18.781-.002 13.5-9.043 20.389-14.386 22.5zm-11.473-10.693c-2.715 1.605-6.073 1.742-10.023 1.742H452.55v-18.996h24.993c3.614 0 7.23.077 9.687 1.528 2.63 1.37 4.203 3.989 4.203 7.608 0 3.62-1.573 6.534-4.203 8.118zm183.23 5.388c3.952 4.073 6.07 9.215 6.07 17.92 0 18.194-11.415 26.687-31.884 26.687h-39.533v-18.136h39.374c3.85 0 6.58-.507 8.29-2.094 1.396-1.308 2.398-3.208 2.398-5.517 0-2.463-1.084-4.42-2.477-5.593-1.552-1.29-3.693-1.877-7.228-1.877-18.981-.645-42.752.587-42.752-26.178 0-12.268 7.74-25.18 29.019-25.18h40.69v18h-37.233c-3.69 0-6.09.138-8.131 1.528-2.224 1.37-3.048 3.403-3.048 6.086 0 3.19 1.887 5.36 4.44 6.3 2.142.742 4.442.958 7.9.958l10.926.294c11.019.267 18.582 2.165 23.18 6.802zm80.542-22.642h-36.993c-3.693 0-6.147.138-8.213 1.528-2.142 1.37-2.966 3.402-2.966 6.085 0 3.191 1.808 5.362 4.438 6.3 2.141.742 4.441.96 7.822.96l11 .292c11.101.273 18.511 2.173 23.03 6.808.821.645 1.316 1.37 1.882 2.094v-24.067z" fill="#393939"/></g></svg>
